X:608
T:
S:Efter Nils Jonsson Sallmans i Burs m. fl.
R:kadrilj
O:Gotland, Burs
M:2/4
L:1/16
K:C
G2|[G,Ec]4 [G,FB]4|[G,Ec]6 gf|e2e2 dcBA|G6 z2|
cdef g2e2|a3g a4|c2c2 BcdB|c6::e2|
B2B2 dcBA|G2g2 g4|B2a2 a4|gfed c2B2|
G2G2 GABc|d2g2 g4|a3ga3B|c4 z2::g2|
fedc BAGF|EFGA G4|e2c2 g2e2|dcde d2g2|
fedc BAGF|EFGA G4|B2d2 g2B2|c4 z2::GF|
E2G2 c2e2|e6dc|c2B2 B2A2|G6GF|
E2C2 E2G2|c4 z2 gf|e2d2 a2B2|c4 z2:|

